plasma/desktoptheme/Materia-Color/icons/audio.svg

<svg xmlns="http://www.w3.org/2000/svg" width="32" height="32" version="1.1">
 <defs id="materia">
  <style id="current-color-scheme" type="text/css">
   .ColorScheme-Background {color:#181818; } .ColorScheme-ButtonBackground { color:#343434; } .ColorScheme-Highlight { color:#4285f4; } .ColorScheme-Text { color:#dfdfdf; } .ColorScheme-ViewBackground { color:#242424; } .ColorScheme-NegativeText { color:#f44336; } .ColorScheme-PositiveText { color:#4caf50; } .ColorScheme-NeutralText { color:#ff9800; }
  </style>
 </defs>
 <g id="22-22-audio-volume-low" transform="translate(-293.0004,397)">
  <path style="opacity:0.001" d="m 325.0004,-419 h 22 c 0,0 0,0 0,0 v 22 c 0,0 0,0 0,0 h -22 c 0,0 0,0 0,0 v -22 c 0,0 0,0 0,0 z"/>
  <path style="fill:currentColor" class="ColorScheme-Text" d="m 335.0004,-416 -5,5 h -3 v 6 h 3 l 5,5 z"/>
  <path style="opacity:0.35;fill:currentColor" class="ColorScheme-Text" d="m 337.0004,-416 v 2 c 2.86838,0.84571 5,3.06286 5,6 0,2.93714 -2.13163,5.15429 -5,6 v 2 c 3.89455,-0.89143 7,-4.11429 7,-8 0,-3.88571 -3.10545,-7.10857 -7,-8 z"/>
  <path style="opacity:0.35;fill:currentColor" class="ColorScheme-Text" d="m 337.0004,-412 v 8 c 0,0 3.0002,-1 3,-4 -2e-4,-3 -3,-4 -3,-4 z"/>
 </g>
 <g id="22-22-audio-volume-medium" transform="translate(-261.0004,397)">
  <path style="opacity:0.001" d="m 325.0004,-419 h 22 c 0,0 0,0 0,0 v 22 c 0,0 0,0 0,0 h -22 c 0,0 0,0 0,0 v -22 c 0,0 0,0 0,0 z"/>
  <path style="fill:currentColor" class="ColorScheme-Text" d="m 335.0004,-416 -5,5 h -3 v 6 h 3 l 5,5 z"/>
  <path style="opacity:0.35;fill:currentColor" class="ColorScheme-Text" d="m 337.0004,-416 v 2 c 2.86838,0.84571 5,3.06286 5,6 0,2.93714 -2.13163,5.15429 -5,6 v 2 c 3.89455,-0.89143 7,-4.11429 7,-8 0,-3.88571 -3.10545,-7.10857 -7,-8 z"/>
  <path style="fill:currentColor" class="ColorScheme-Text" d="m 337.0004,-412 v 8 c 0,0 3.0002,-1 3,-4 -2e-4,-3 -3,-4 -3,-4 z"/>
 </g>
 <g id="22-22-audio-volume-high" transform="translate(-229.0004,397)">
  <path style="opacity:0.001" d="m 325.0004,-419 h 22 c 0,0 0,0 0,0 v 22 c 0,0 0,0 0,0 h -22 c 0,0 0,0 0,0 v -22 c 0,0 0,0 0,0 z"/>
  <path style="fill:currentColor" class="ColorScheme-Text" d="m 335.0004,-416 -5,5 h -3 v 6 h 3 l 5,5 z"/>
  <path style="fill:currentColor" class="ColorScheme-Text" d="m 337.0004,-416 v 2 c 2.86838,0.84571 5,3.06286 5,6 0,2.93714 -2.13163,5.15429 -5,6 v 2 c 3.89455,-0.89143 7,-4.11429 7,-8 0,-3.88571 -3.10545,-7.10857 -7,-8 z"/>
  <path style="fill:currentColor" class="ColorScheme-Text" d="m 337.0004,-412 v 8 c 0,0 3.0002,-1 3,-4 -2e-4,-3 -3,-4 -3,-4 z"/>
 </g>
 <g id="audio-volume-muted">
  <path style="opacity:0.001" d="M -6.8179997e-7,-4.5e-6 H 32 c 0,0 0,0 0,0 V 31.999996 c 0,0 0,0 0,0 H -6.8179997e-7 c 0,0 0,0 0,0 V -4.5e-6 c 0,0 0,0 0,0 z"/>
  <path style="opacity:0.35;fill:currentColor" class="ColorScheme-Text" d="M 5.1601562 2.0390625 L 3.0390625 4.1601562 L 8.7304688 9.8515625 L 7.5 11 L 3 11 L 3 21 L 7.5 21 L 15 28 L 15 16.121094 L 18 19.121094 L 18 21.914062 A 6 6 0 0 0 20.039062 21.160156 L 22.197266 23.318359 A 9 9 0 0 1 18 24.933594 L 18 27.949219 A 12 12 0 0 0 24.339844 25.460938 L 26.839844 27.960938 L 28.960938 25.839844 L 26.466797 23.345703 L 24.326172 21.205078 L 22.164062 19.042969 L 18 14.878906 L 15 11.878906 L 10.923828 7.8027344 L 5.1601562 2.0390625 z M 15 4 L 13.119141 5.7558594 L 15 7.6367188 L 15 4 z M 18 4.046875 L 18 7.0605469 A 9 9 0 0 1 26 16 A 9 9 0 0 1 25.683594 18.320312 L 28.039062 20.675781 A 12 12 0 0 0 29 16 A 12 12 0 0 0 18 4.046875 z M 18 10.089844 L 18 10.636719 L 22.980469 15.617188 A 6 6 0 0 0 18 10.089844 z"/>
 </g>
 <g id="audio-volume-low" transform="translate(32.000001)">
  <path style="opacity:0.001" d="M -6.8179997e-7,-4.5e-6 H 32 c 0,0 0,0 0,0 V 31.999996 c 0,0 0,0 0,0 H -6.8179997e-7 c 0,0 0,0 0,0 V -4.5e-6 c 0,0 0,0 0,0 z"/>
  <path style="fill:currentColor" class="ColorScheme-Text" d="M 15,4 7.5,11 H 3 v 10 h 4.5 l 7.5,7 z"/>
  <path style="opacity:0.35;fill:currentColor" class="ColorScheme-Text" transform="translate(-32.000001)" d="M 50 4.046875 L 50 7.0605469 A 9 9 0 0 1 58 16 A 9 9 0 0 1 50 24.933594 L 50 27.949219 A 12 12 0 0 0 61 16 A 12 12 0 0 0 50 4.046875 z M 50 10.089844 L 50 21.914062 A 6 6 0 0 0 55 16 A 6 6 0 0 0 50 10.089844 z"/>
 </g>
 <g id="audio-volume-medium" transform="translate(64.000002)">
  <path style="opacity:0.001" d="M -6.8179997e-7,-4.5e-6 H 32 c 0,0 0,0 0,0 V 31.999996 c 0,0 0,0 0,0 H -6.8179997e-7 c 0,0 0,0 0,0 V -4.5e-6 c 0,0 0,0 0,0 z"/>
  <path style="fill:currentColor" class="ColorScheme-Text" transform="translate(-64.000002)" d="M 79 4 L 71.5 11 L 67 11 L 67 21 L 71.5 21 L 79 28 L 79 4 z M 82 10.089844 L 82 21.914062 A 6 6 0 0 0 87 16 A 6 6 0 0 0 82 10.089844 z"/>
  <path style="opacity:0.35;fill:currentColor" class="ColorScheme-Text" d="M 18,4.046875 V 7.0605469 A 9,9 0 0 1 26,16 9,9 0 0 1 18,24.933594 v 3.015625 A 12,12 0 0 0 29,16 12,12 0 0 0 18,4.046875 Z"/>
 </g>
 <g id="audio-volume-high" transform="translate(96.000003)">
  <path style="opacity:0.001" d="M -6.8179997e-7,-4.5e-6 H 32 c 0,0 0,0 0,0 V 31.999996 c 0,0 0,0 0,0 H -6.8179997e-7 c 0,0 0,0 0,0 V -4.5e-6 c 0,0 0,0 0,0 z"/>
  <path style="fill:currentColor" class="ColorScheme-Text" transform="translate(-96.000003)" d="M 111 4 L 103.5 11 L 99 11 L 99 21 L 103.5 21 L 111 28 L 111 4 z M 114 4.046875 L 114 7.0605469 A 9 9 0 0 1 122 16 A 9 9 0 0 1 114 24.933594 L 114 27.949219 A 12 12 0 0 0 125 16 A 12 12 0 0 0 114 4.046875 z M 114 10.089844 L 114 21.914062 A 6 6 0 0 0 119 16 A 6 6 0 0 0 114 10.089844 z"/>
 </g>
 <g id="22-22-audio-radio-symbolic" transform="translate(-5.0000007,58.999996)">
  <rect style="opacity:0.001" width="22" height="22" x="5" y="5"/>
  <path style="fill:currentColor" class="ColorScheme-Text" d="M 11.984375,6.9921855 C 11.432083,7.0007855 10.991355,7.4555205 11,8.0078105 v 3.0000005 h -1 c -1.108,0 -2,0.892 -2,2 V 22 c 0,1.108 0.892,2 2,2 h 12 c 1.108,0 2,-0.892 2,-2 v -8.992189 c 0,-1.108 -0.898672,-2.121413 -2,-2 H 13 V 8.0078105 c 0.0088,-0.56453 -0.45109,-1.024455 -1.015625,-1.015625 z M 10,13.007811 H 22 V 22 H 10 Z m 3.5,1.992188 A 2.5,2.5 0 0 0 11,17.5 2.5,2.5 0 0 0 13.5,20 2.5,2.5 0 0 0 16,17.5 2.5,2.5 0 0 0 13.5,14.999999 Z m 4,0 a 0.50005,0.50005 0 1 0 0,1 h 3 a 0.50005,0.50005 0 1 0 0,-1 z M 17.5,17 a 0.50005,0.50005 0 1 0 0,1 h 3 a 0.50005,0.50005 0 1 0 0,-1 z m 0,2 a 0.50005,0.50005 0 1 0 0,1 h 3 a 0.50005,0.50005 0 1 0 0,-1 z"/>
 </g>
 <g id="audio-radio-symbolic" transform="translate(-1.8179997e-7,31.999996)">
  <rect style="opacity:0.001" width="32" height="32" x="0" y="0"/>
  <path style="fill:currentColor" class="ColorScheme-Text" d="M 9.4765625,2.9785156 A 1.50015,1.50015 0 0 0 8,4.5 V 10 H 7 c -1.662,0 -3,1.338 -3,3 v 12 c 0,1.662 1.338,3 3,3 h 18 c 1.662,0 3,-1.338 3,-3 V 13 c 0,-1.662 -1.338,-3 -3,-3 H 11 V 4.5 A 1.50015,1.50015 0 0 0 9.4765625,2.9785156 Z M 7,13 H 25 V 25 H 7 Z m 5,2 a 4,4 0 0 0 -4,4 4,4 0 0 0 4,4 4,4 0 0 0 4,-4 4,4 0 0 0 -4,-4 z m 6,0 a 1.0001,1.0001 0 1 0 0,2 h 4 a 1.0001,1.0001 0 1 0 0,-2 z m 0,3 a 1.0001,1.0001 0 1 0 0,2 h 4 a 1.0001,1.0001 0 1 0 0,-2 z m 0,3 a 1.0001,1.0001 0 1 0 0,2 h 4 a 1.0001,1.0001 0 1 0 0,-2 z"/>
 </g>
 <g id="22-22-audio-volume-muted" transform="translate(-5.0000007,-27.000005)">
  <path style="opacity:0.001" d="m 5,5 h 22 c 0,0 0,0 0,0 v 22 c 0,0 0,0 0,0 H 5 c 0,0 0,0 0,0 V 5 c 0,0 0,0 0,0 z"/>
  <path style="opacity:0.35;fill:currentColor" class="ColorScheme-Text" d="M 8.40625,7 7,8.40625 10.792969,12.207032 10,13 H 7 v 6 h 3 l 5,5 v -7.585938 l 2,2 V 20 c 0,0 0.472551,-0.167669 1.039062,-0.546875 l 1.361329,1.361328 C 18.697036,21.326563 17.892734,21.736786 17,22 v 2 c 1.40323,-0.321188 2.696638,-0.951413 3.785156,-1.800781 L 23.59375,25 25,23.59375 22.222656,20.808594 20.839844,19.425781 19.439453,18.025391 17,15.585938 l -2,-2 -2.792969,-2.792969 z M 15,8 13.621094,9.378907 15,10.757813 Z m 2,0 v 2 c 2.86838,0.84571 5,3.06286 5,6 0,0.538481 -0.09381,1.04323 -0.228516,1.529297 L 23.3125,19.070312 C 23.749051,18.122442 24,17.088615 24,16 24,12.11429 20.89455,8.89143 17,8 Z m 0,4 v 0.757813 l 2.984375,2.984375 C 19.815427,12.946973 17,12 17,12 Z"/>
 </g>
</svg>

<?xml version="1.0" encoding="UTF-8"?>
<svg width="32" height="32" version="1.1" xmlns="http://www.w3.org/2000/svg">
 <defs id="materia">
  <style id="current-color-scheme" type="text/css">.ColorScheme-Background {color:#181818; } .ColorScheme-ButtonBackground { color:#343434; } .ColorScheme-Highlight { color:#4285f4; } .ColorScheme-Text { color:#dfdfdf; } .ColorScheme-ViewBackground { color:#242424; } .ColorScheme-NegativeText { color:#f44336; } .ColorScheme-PositiveText { color:#4caf50; } .ColorScheme-NeutralText { color:#ff9800; }</style>
 </defs>
 <g id="22-22-audio-volume-low" transform="translate(-293 397)">
  <path d="m325-419h22v22h-22v-22z" opacity=".001"/>
  <path class="ColorScheme-Text" d="m335-416-5 5h-3v6h3l5 5z" fill="currentColor"/>
  <path class="ColorScheme-Text" d="m337-416v2c2.8684 0.84571 5 3.0629 5 6s-2.1316 5.1543-5 6v2c3.8946-0.89143 7-4.1143 7-8s-3.1054-7.1086-7-8z" fill="currentColor" opacity=".35"/>
  <path class="ColorScheme-Text" d="m337-412v8s3.0002-1 3-4-3-4-3-4z" fill="currentColor" opacity=".35"/>
 </g>
 <g id="22-22-audio-volume-medium" transform="translate(-261 397)">
  <path d="m325-419h22v22h-22v-22z" opacity=".001"/>
  <path class="ColorScheme-Text" d="m335-416-5 5h-3v6h3l5 5z" fill="currentColor"/>
  <path class="ColorScheme-Text" d="m337-416v2c2.8684 0.84571 5 3.0629 5 6s-2.1316 5.1543-5 6v2c3.8946-0.89143 7-4.1143 7-8s-3.1054-7.1086-7-8z" fill="currentColor" opacity=".35"/>
  <path class="ColorScheme-Text" d="m337-412v8s3.0002-1 3-4-3-4-3-4z" fill="currentColor"/>
 </g>
 <g id="22-22-audio-volume-high" transform="translate(-229 397)">
  <path d="m325-419h22v22h-22v-22z" opacity=".001"/>
  <path class="ColorScheme-Text" d="m335-416-5 5h-3v6h3l5 5z" fill="currentColor"/>
  <path class="ColorScheme-Text" d="m337-416v2c2.8684 0.84571 5 3.0629 5 6s-2.1316 5.1543-5 6v2c3.8946-0.89143 7-4.1143 7-8s-3.1054-7.1086-7-8z" fill="currentColor"/>
  <path class="ColorScheme-Text" d="m337-412v8s3.0002-1 3-4-3-4-3-4z" fill="currentColor"/>
 </g>
 <g id="audio-volume-muted">
  <path d="m-6.818e-7 -4.5e-6h32v32h-32v-32z" opacity=".001"/>
  <path class="ColorScheme-Text" d="m5.1602 2.0391-2.1211 2.1211 5.6914 5.6914-1.2305 1.1484h-4.5v10h4.5l7.5 7v-11.879l3 3v2.793a6 6 0 0 0 2.0391-0.75391l2.1582 2.1582a9 9 0 0 1-4.1973 1.6152v3.0156a12 12 0 0 0 6.3398-2.4883l2.5 2.5 2.1211-2.1211-23.801-23.801zm9.8398 1.9609-1.8809 1.7559 1.8809 1.8809v-3.6367zm3 0.046875v3.0137a9 9 0 0 1 8 8.9395 9 9 0 0 1-0.31641 2.3203l2.3555 2.3555a12 12 0 0 0 0.96094-4.6758 12 12 0 0 0-11-11.953zm0 6.043v0.54688l4.9805 4.9805a6 6 0 0 0-4.9805-5.5273z" fill="currentColor" opacity=".35"/>
 </g>
 <g id="audio-volume-low" transform="translate(32)">
  <path d="m-6.818e-7 -4.5e-6h32v32h-32v-32z" opacity=".001"/>
  <path class="ColorScheme-Text" d="m15 4-7.5 7h-4.5v10h4.5l7.5 7z" fill="currentColor"/>
  <path class="ColorScheme-Text" transform="translate(-32)" d="m50 4.0469v3.0137a9 9 0 0 1 8 8.9395 9 9 0 0 1-8 8.9336v3.0156a12 12 0 0 0 11-11.949 12 12 0 0 0-11-11.953zm0 6.043v11.824a6 6 0 0 0 5-5.9141 6 6 0 0 0-5-5.9102z" fill="currentColor" opacity=".35"/>
 </g>
 <g id="audio-volume-medium" transform="translate(64)">
  <path d="m-6.818e-7 -4.5e-6h32v32h-32v-32z" opacity=".001"/>
  <path class="ColorScheme-Text" transform="translate(-64)" d="m79 4-7.5 7h-4.5v10h4.5l7.5 7v-24zm3 6.0898v11.824a6 6 0 0 0 5-5.9141 6 6 0 0 0-5-5.9102z" fill="currentColor"/>
  <path class="ColorScheme-Text" d="m18 4.0469v3.0137a9 9 0 0 1 8 8.9395 9 9 0 0 1-8 8.9336v3.0156a12 12 0 0 0 11-11.949 12 12 0 0 0-11-11.953z" fill="currentColor" opacity=".35"/>
 </g>
 <g id="audio-volume-high" transform="translate(96)">
  <path d="m-6.818e-7 -4.5e-6h32v32h-32v-32z" opacity=".001"/>
  <path class="ColorScheme-Text" transform="translate(-96)" d="m111 4-7.5 7h-4.5v10h4.5l7.5 7v-24zm3 0.046875v3.0137a9 9 0 0 1 8 8.9395 9 9 0 0 1-8 8.9336v3.0156a12 12 0 0 0 11-11.949 12 12 0 0 0-11-11.953zm0 6.043v11.824a6 6 0 0 0 5-5.9141 6 6 0 0 0-5-5.9102z" fill="currentColor"/>
 </g>
 <g id="22-22-audio-radio-symbolic" transform="translate(-5 59)">
  <rect x="5" y="5" width="22" height="22" opacity=".001"/>
  <path class="ColorScheme-Text" d="m11.984 6.9922c-0.55229 0.0086-0.99302 0.46334-0.98438 1.0156v3h-1c-1.108 0-2 0.892-2 2v8.9922c0 1.108 0.892 2 2 2h12c1.108 0 2-0.892 2-2v-8.9922c0-1.108-0.89867-2.1214-2-2h-9v-3c0.0088-0.56453-0.45109-1.0245-1.0156-1.0156zm-1.9844 6.0156h12v8.9922h-12zm3.5 1.9922a2.5 2.5 0 0 0-2.5 2.5 2.5 2.5 0 0 0 2.5 2.5 2.5 2.5 0 0 0 2.5-2.5 2.5 2.5 0 0 0-2.5-2.5zm4 0a0.50005 0.50005 0 1 0 0 1h3a0.50005 0.50005 0 1 0 0-1zm0 2a0.50005 0.50005 0 1 0 0 1h3a0.50005 0.50005 0 1 0 0-1zm0 2a0.50005 0.50005 0 1 0 0 1h3a0.50005 0.50005 0 1 0 0-1z" fill="currentColor"/>
 </g>
 <g id="audio-radio-symbolic" transform="translate(-1.818e-7 32)">
  <rect width="32" height="32" opacity=".001"/>
  <path class="ColorScheme-Text" d="m9.4766 2.9785a1.5002 1.5002 0 0 0-1.4766 1.5215v5.5h-1c-1.662 0-3 1.338-3 3v12c0 1.662 1.338 3 3 3h18c1.662 0 3-1.338 3-3v-12c0-1.662-1.338-3-3-3h-14v-5.5a1.5002 1.5002 0 0 0-1.5234-1.5215zm-2.4766 10.021h18v12h-18zm5 2a4 4 0 0 0-4 4 4 4 0 0 0 4 4 4 4 0 0 0 4-4 4 4 0 0 0-4-4zm6 0a1.0001 1.0001 0 1 0 0 2h4a1.0001 1.0001 0 1 0 0-2zm0 3a1.0001 1.0001 0 1 0 0 2h4a1.0001 1.0001 0 1 0 0-2zm0 3a1.0001 1.0001 0 1 0 0 2h4a1.0001 1.0001 0 1 0 0-2z" fill="currentColor"/>
 </g>
 <g id="22-22-audio-volume-muted" transform="translate(-5 -27)">
  <path d="m5 5h22v22h-22v-22z" opacity=".001"/>
  <path class="ColorScheme-Text" d="m8.4062 7-1.4062 1.4062 3.793 3.8008-0.79297 0.79297h-3v6h3l5 5v-7.5859l2 2v1.5859s0.47255-0.16767 1.0391-0.54688l1.3613 1.3613c-0.70336 0.51211-1.5077 0.92233-2.4004 1.1855v2c1.4032-0.32119 2.6966-0.95141 3.7852-1.8008l2.8086 2.8008 1.4062-1.4062-2.7773-2.7852-10.016-10.016zm6.5938 1-1.3789 1.3789 1.3789 1.3789zm2 0v2c2.8684 0.84571 5 3.0629 5 6 0 0.53848-0.09381 1.0432-0.22852 1.5293l1.541 1.541c0.43655-0.94787 0.6875-1.9817 0.6875-3.0703 0-3.8857-3.1054-7.1086-7-8zm0 4v0.75781l2.9844 2.9844c-0.16895-2.7952-2.9844-3.7422-2.9844-3.7422z" fill="currentColor" opacity=".35"/>
 </g>
</svg>
